!!!!SEGMENT: pl-wtm--r-513-1-m_moniuszko-stanislaw--flis-modlitwa.krn
!!!cenid: 18xx:2977
!!!COM: Moniuszko, Stanisław
!!!COM-rismID: pe30008351
!!!CDT: 1819/05/05-1872/06/04
!!!CNT: Polish
!!!GTL: Flis
!!!OTL: Modlitwa
!!!OMV: 001
!!!PDT: 1858
!!!AGN: Secular
!!!SMS-siglum: PL-Wtm
!!!SMS-shelfmark: R 513-1/M
!!!SMS-shelfwork: 001-001 G
!!!SMS-variant:
!!!SMS-altvar:
!!!NIFC-rismSourceID: 1001086072
!!!NIFC-rismChildID: 1001086072
!!!NIFC-islandoraID:
!!!URL-pdf-islandora:
!!!URL-scan:
!!!ONB-nifc:
!!!AIN: 2 empty
!!!key:
**kern	**kern	**dynam	**kern	**text	**text	**dynam
*part2	*part2	*part2	*part1	*part1	*part1	*part1
*staff3	*staff2	*	*staff1	*staff1	*staff1	*
*Iempty	*Iempty	*	*Iempty	*	*	*
*I"	*I"	*	*I"	*	*	*
*>[A,B,B,C]	*>[A,B,B,C]	*	*>[A,B,B,C]	*	*	*
*clefF4	*clefG2	*	*clefG2	*	*	*
*k[b-]	*k[b-]	*	*k[b-]	*	*	*
*F:	*F:	*	*F:	*	*	*
*M3/4	*M3/4	*	*M3/4	*	*	*
=1	=1	=1	=1	=1	=1	=1
*>A	*>A	*	*>A	*	*	*
*all\right	*all\right	*	*all\right	*	*	*
!	!	!	!LO:TX:a:t=Andante:color=purple	!	!	!
!	!	!	!LO:TX:t=P:problem=fermata na 2 pauzami	!	!	!
2FF;/	2f/ 2c/ 2A;/	.	4r	.	.	.
.	.	.	4r;	.	.	.
*	*	*	*	*color:purple	*	*
4r	4r	.	8f/	Dzię-	.	.
.	.	.	8a/	-ki	.	.
=2	=2	=2	=2	=2	=2	=2
2.r	2.r	.	4cc\	Ci	.	.
.	.	.	4cc\	przed-	.	.
.	.	.	8b-\	-wie-	.	.
.	.	.	8dd\	-czny	.	.
=3	=3	=3	=3	=3	=3	=3
2.r	2.r	.	4cc\	pa-	.	.
.	.	.	4a\	-nie	.	.
.	.	.	8f/	ześ	.	.
.	.	.	8a/	o-	.	.
=4	=4	=4	=4	=4	=4	=4
2.r	2.r	.	8cc\	-chro-	.	.
.	.	.	8cc\	-nił	.	.
.	.	.	4dd\	cha-	.	.
.	.	.	4a/	-ty	.	.
!!LO:LB:g=original
=5	=5	=5	=5	=5	=5	=5
*	*	*	*2\right	*	*	*
2.r	4r	.	[2.cc\	nam!	.	.
.	4r	.	.	.	.	.
!	!	!LO:DY:rj	!	!	!	!
.	8.a/L 8.f/	pp	.	.	.	.
.	16cc/Jk 16a/	.	.	.	.	.
=6	=6	=6	=6	=6	=6	=6
2.r	(4b-/ (4g/	.	2.cc\_	.	.	.
.	8g/ 8c/))	.	.	.	.	.
.	8r	.	.	.	.	.
.	8.g/L 8.e/	.	.	.	.	.
.	16f/Jk 16d/	.	.	.	.	.
=7	=7	=7	=7	=7	=7	=7
*2\right	*	*	*	*	*	*
2c;\	2cc/ 2g/ 2e;/	.	4cc\]	.	.	.
.	.	.	4r;	.	.	.
(8F\L	(8f/L	.	8f/	Ty	.	.
8A\J	8a/J	.	8a/	co	.	.
=8	=8	=8	=8	=8	=8	=8
4c\)	4cc\)	.	4cc\	ka-	.	.
4c\	4cc\	.	4cc\	-żesz	.	.
(8B-\L	(8b-\L	.	8b-\	to	.	.
8d\J	8dd\J	.	8dd\	się	.	.
=9	=9	=9	=9	=9	=9	=9
4.c\	4.cc\	.	4.cc\	sta-	.	.
8A\)	8a/)	.	8a/	-nie,	.	.
8F\L	8f/L	.	8f/	boś	.	.
8A\J	8a/J	.	8a/	Ty	.	.
!!LO:LB:g=original
=10	=10	=10	=10	=10	=10	=10
8c\L	8cc\L	<	8cc\	Wiel-	.	.
8c\J	8cc\J	[	8cc\	-ki	.	.
(4e-X\	(4ee-X\	>	(4ee-X\	tyl-	.	.
8.d\L)	8.dd\L)	]	8.dd\)	.	.	.
16B-\Jk	16b-\Jk	.	16b-\	-ko	.	.
=11	=11	=11	=11	=11	=11	=11
*	*2\right	*	*	*	*	*
[2.d\	2dd\	.	[2.dd\	sam!	.	.
!	!	!LO:DY:a:rj:t=pp.	!	!	!	!
.	8.a/L 8.f#X/	pp	.	.	.	.
.	16cc/Jk 16a/	.	.	.	.	.
=12	=12	=12	=12	=12	=12	=12
2d\]	(4b-/ (4g/	.	2.dd\_	.	.	.
.	8g/ 8B-/))	.	.	.	.	.
.	8r	.	.	.	.	.
8.A\L	8.f#X/L 8.d/	.	.	.	.	.
16c\Jk	16a/Jk 16d/	.	.	.	.	.
=13	=13	=13	=13	=13	=13	=13
(4B-\	(>4g/ 4d/	.	4dd\]	.	.	.
8G\)	8b-/ 8d/)	.	4r	.	.	.
8r	8r	.	.	.	.	.
*	*	*	*	*below	*above	*
*	*	*	*	*	*color:purple	*
4r	4r	.	8.dd\	[[Ty	boś	.
.	.	.	16dd\	o	Ty	.
=14	=14	=14	=14	=14	=14	=14
(4.B-\ 4.G\ 4.C\	(>4.dd/ 4.e^/	.	4.dd\	każ-	wiel-	.
8G\L 8C'\	8cc/L 8e'/	.	8cc\	-de	-ki	.
8c\ 8C'\	8b-/ 8e'/	.	8b-\	Twe	tyl-	.
8B-\J 8C'\)	8a/J 8e'/)	.	8g/	stwo]	-ko	.
!!LO:LB:g=original
=15!|:	=15!|:	=15!|:	=15!|:	=15!|:	=15!|:	=15!|:
*>B	*>B	*	*>B	*	*	*
*	*	*	*	*	*below	*
4A\ 4F\	8f/L	.	4f/	sam.	nasz.	.
.	8cc/|	.	.	.	.	.
4r	8cc/| 8b-/	.	4r	.	.	.
.	8cc/| 8a/	.	.	.	.	.
4r	8cc/| 8b-/ 8g/	.	8.cc\	Ty	.	.
.	8cc/|J 8a/ 8f/	.	.	.	.	.
.	.	.	16cc\	o	.	.
=16	=16	=16	=16	=16	=16	=16
(8e\L	(8cc/L 8g/	.	4.cc\	każ-	.	.
8d\)	8cc/ 8f/)	.	.	.	.	.
8c\|	8cc/| 8e/	.	.	.	.	.
8c\| 8B-\	8cc/| 8g/ 8e/	.	8cc\	-de	.	.
8c\| 8A\	8cc/| 8f/	.	8cc\	Twe	.	.
8c\|J 8G\	8cc/|J 8b-/ 8e/	.	8cc\	stwo-	.	.
=17	=17	=17	=17	=17	=17	=17
!LO:S:s=1:note:problem=note-level slur	!	!	!	!	!	!LO:DY:rj
(8c\L 8F\	(8ff/L 8a/ 8f/	.	(4ff\	-rze-	.	p
8c\ 8A\)	8cc/)	.	.	.	.	.
!	!LO:TX:b:t=cres.cen.do.:ext2=ut:problem=dynamics with extension lines	!LO:HP:b:t=cres.cen.do	!	!	!	!
8c\| 8G\	8cc/| 8b-/	<	8cc\)	-nie	.	.
8c\| 8F\	8cc/| 8a/	.	8r	.	.	.
8c\| 8E\	8cc/| 8g/	.	8cc\	z czu-	.	.
8c\|J 8D\	8cc/|J 8f/	.	8cc\	-ciem	.	.
=18	=18	=18	=18	=18	=18	=18
8c\L 8C\	8cc/L 8e/	.	4.cc\	Oj-	.	.
8B-\| 8BB-\	8cc/| 8g/ 8e/	.	.	.	.	.
8A\| 8AA\	8cc/| 8f/	.	.	.	.	.
8G\| 8GG\	8cc/| 8b-/ 8e/	.	8cc\	-ca	.	.
8.F\ 8.FF^\	8.cc/ 8.a/ 8.f^/	[	8.cc\	zaw-	.	.
16E\Jk 16EE\	16cc/Jk 16g/	.	16cc\	-sze	.	.
!!LO:LB:g=original
=19	=19	=19	=19	=19	=19	=19
!	!	!	!	!	!	!LO:HP:b
!	!	!LO:DY:rj	!	!	!	!LO:DY:rj
(2D/ 2DD^^>/	(2ff\ 2a\ 2f\	f	(2ff\	dbasz,	.	f >
8.B-\L 8.D\)	8.cc#X/L 8.g/ 8.e/)	p	8.cc#X\)	przyj-	.	] p
16B-\Jk 16D\	16cc#/Jk 16g/ 16e/	.	16cc#\	-mij	.	.
=20	=20	=20	=20	=20	=20	=20
4.A\ 4.D\	4.dd/ 4.f/ 4.d/	.	4.dd\	na-	.	.
8A\|L 8D\	8cc/L 8f'/	.	8cc\	-sze	.	.
8A\| 8D\	8bn/ 8f'/	.	8bn\	dzięk-	.	.
8A\|J 8D\	8cc/J 8f'/	.	8cc\	-czy-	.	.
=21	=21	=21	=21	=21	=21	=21
*	*	*	*	*below	*above	*
4.A-X\ 4.D\	4.dd/ 4.f/	.	4.dd\	-[czy-	nie-	.
8A-\|L 8D\	8cc/|L 8f/	.	8cc\	-nie-	-nie,	.
8A-\| 8D\	8bn/| 8f/	.	8bn\	-nie	mi-	.
8A-\|J 8D\	8cc/|J 8f/	.	8cc\	Mi]	-ło	.
=22	=22	=22	=22	=22	=22	=22
*^	*	*	*	*	*	*
*	*	*	*	*	*below	*	*
4.An/	8C\L	4.dd/| 4.f/	.	4.dd\	sier-	.	.
.	16r	.	.	.	.	.	.
.	16C\Jk	.	.	.	.	.	.
!	!LO:N:vis=4	!	!	!	!	!	!
.	8C\	.	.	.	.	.	.
8A/L|>	8C\L	8cc/|L 8f/	.	8cc\	-ny	.	.
8G/|>	8C\	8b-/| 8f/	.	8b-X\	Oj-	.	.
8B-/J|>	8C\J	8g/|J 8e/	.	8g/	-cze	.	.
*v	*v	*	*	*	*	*	*
!!LO:LB:g=original
=23:|!	=23:|!	=23:|!	=23:|!	=23:|!	=23:|!	=23:|!
*>C	*>C	*	*>C	*	*	*
*ped	*	*	*	*	*	*
!LO:TX:t=P:problem=mixed beam	!	!	!	!	!	!
8A\L 8F\	4f/	.	4a/	nasz!	.	.
8FF/	.	.	.	.	.	.
8FF/	4r	.	4r	.	.	.
8FF/	.	.	.	.	.	.
!	!	!	!	!	!	!LO:DY:a
8FF/	8.a/L 8.f/ 8.c/	.	8.a\	Bo-	.	p
8FF/J	.	.	.	.	.	.
.	16a/Jk 16f/ 16c/	.	16a\	-że	.	.
=24	=24	=24	=24	=24	=24	=24
*^	*	*	*	*	*	*
2.F/	8FF\L	2cc/ 2a/ 2f/	.	2cc\	nasz!	.	.
.	8FF\	.	.	.	.	.	.
.	8FF\	.	.	.	.	.	.
.	8FF\	.	.	.	.	.	.
.	8FF\	8.f/L 8.c/ 8.A/	.	8.f/	Oj-	.	.
.	8FF\J	.	.	.	.	.	.
.	.	16f/Jk 16A/	.	16f/	-cze	.	.
*v	*v	*	*	*	*	*	*
=25	=25	=25	=25	=25	=25	=25
8FF/L	2a/ 2c/	.	2a/	nasz!	.	.
8CC/	.	.	.	.	.	.
8FF/	.	.	.	.	.	.
*Xped	*	*	*	*	*	*
8AA/	.	.	.	.	.	.
8.C/	8.c/L	.	8.c/	mi-	.	.
16F/Jk	16f/Jk	.	16f/	-ło-	.	.
=26	=26	=26	=26	=26	=26	=26
(8.A^\L	(8.a^/L	.	8.a/	-sier-	.	.
16G\Jk	16g/Jk	.	16g/	-ny	.	.
4F\)	4f/)	.	4f/	Oj-	.	.
4F\ 4BB-\	4d/ 4B-/	.	4d/	-cze	.	.
=27	=27	=27	=27	=27	=27	=27
2.F\ 2.FF\	2.f/ 2.c/ 2.A;/	.	2.f;/	nasz!	.	.
==	==	==	==	==	==	==
*-	*-	*-	*-	*-	*-	*-
!!!system-decoration: {(s1)(s2,s3)}
!!!RDF**kern: | = vertical stroke
!!!RDF**kern: > = above
!!!RDF**kern: < = below
!!!RDF**dynam: p = p.
!!!ENC: Andrzej Gręziak
!!!END: 2021-08-17
!!!EED: Andrzej Borzym
!!!EEV: 2021-09-23
!!!YEC: Copyright 2022 Narodowy Instytut Fryderyka Chopina (https://polishscores.org)
!!!YEM: License CC-BY-4.0 (https://creativecommons.org/licenses/by/4.0)
